X:1
T:Monkey Island Theme
O:Unknown
Q:1/4=100
M:4/4
L:1/8
K:C
N:e G/ G/ z G/ G/ z F/ F/ |e G/ G/ z G/ G/ z F/ F/ | e G/ G/ z G/ G/ z F/ F/ z G/ G/ |
E/ B,/ E/ G/ ^F/ E/ D E3 D |D/ C/ B,/ D/ C C B,2 E E| E> G/ F/ E/ D E3 z/ ^F/ |
G G A2 ^F> G/ ^F/ E/ D/ ^F/ |G G ^F2 E3/2 G/ ^F/ E/ ^D/ ^F/ |
G G ^F2 E3/2 G/ ^F/ E/ ^D| E E E2 z E D/ C/ B,/ D/ |
C C B, D |
c G G2 c/ B/ A/ c/ |B G G2 z G | A D D z/ A/ B/ A/ G/ A/ |
B G G E E2 F, G, |A,/ F,/ F/ C/ c/ A,/ ^F/ A/ F,/ C/ F/ A,/ c/ C/ A/ f |
B G G z/ G/ ^F G F/ G/ E/ G/ |_E C C2 |
A ^F ^F z/ ^F/ E F E/ F/ D |E/ B,/ E/ G/ ^F/ E/ D E3/2 D |
D/ C/ B,/ D/ C/ C/ B,2 E E |E3/2 G/ ^F/ E/ D E3/2 z/ ^F/ |
G G A2 E3/2 G/ ^F/ E/ D/ ^F/ |G G ^F2 E3/2 G/ ^F/ E/ ^D/ ^F/ |
G G ^F2 E3/2 G/ ^F/ E/ ^D |E E E2 z D C/ B,/ C |
B,2 z E E3/2 G/ ^F/ E/ D |E E2 z/ G/ A/ G/ ^F/ A/ G/ E/ ^F |
E2 z z4
-----------------------------------------------------------------------------
Amshara18-09-2007, 06:15 PMIt has some errors (i think by half a tune) but it will do i think :)
